public/img/grafana_icon.svg

<?xml version="1.0" encoding="UTF-8"?>
<svg width="739px" height="233px" viewBox="0 0 739 233" version="1.1" xmlns="http://www.w3.org/2000/svg" xmlns:xlink="http://www.w3.org/1999/xlink">
    <!-- Generator: Sketch 53 (72520) - https://sketchapp.com -->
    <title>smartBRIDGE_HH_Logo_vektorisiert@2x</title>
    <desc>Created with Sketch.</desc>
    <g id="smartBRIDGE_HH_Logo_vektorisiert" stroke="none" stroke-width="1" fill="none" fill-rule="evenodd">
        <g id="smartBRIDGE_HH_Logo_pos" transform="translate(29.000000, 10.000000)">
            <g id="Brigde" transform="translate(429.000000, 0.000000)" stroke-linejoin="round">
                <path d="M231.635925,194.097995 C244.160533,186.247283 258.13651,160.639441 254.530303,153.938713 C250.924095,147.237985 209.281183,141.362093 182.874585,141.362093 C156.467986,141.362093 140.0011,153.114192 110.998783,168.48917 C92.8270841,181.022986 17.7706966,181.118679 17.7706966,181.118679 C17.7706966,181.118679 16.347131,178.127296 13.5,172.144531 C57.9778646,172.144531 88.4321756,167.036225 104.862933,156.819611 C129.509069,141.494691 131.082577,140.099678 150.529668,140.099678 C169.976759,140.099678 211.162965,148.810867 217.230462,152.52506 C223.297959,156.239253 209.005848,172.091346 198.096087,181.022986 C190.822914,186.977414 183.233036,191.33575 175.326455,194.097995 C207.23113,194.097995 226.000953,194.097995 231.635925,194.097995 Z" id="Path-33" stroke="#DF2022" stroke-width="2" fill="#DF2022"></path>
                <path d="M142.893821,138.997658 L138.846901,139.694466 L129.013484,84.2173423 L115.778131,160.175055 L142.477121,160.175055 L141.280178,153.422271 L145.200959,151.418787 L147.232661,162.357024 L137.070639,175.133424 L137.832802,175.133424 L137.832802,177.030144 L138.642344,177.030144 L138.642344,186.513745 L119.213334,186.513745 L119.213334,177.030144 L120.022876,177.030144 L120.022876,175.133424 L120.50655,175.133424 L110.640388,160.966237 L125.824594,79.7554988 C125.89686,63.7779951 125.986809,51.8068899 126.094441,43.8421832 C126.202074,35.8774765 126.381972,34.5362597 126.634136,39.8185328 L128.964732,43.357948 L131.620155,39.5475728 L131.890002,79.7554988 L142.893821,138.997658 Z M116.564081,163.35566 L123.35275,173.103605 L134.189335,173.103605 L141.598177,163.35566 L116.564081,163.35566 Z" id="Combined-Shape" stroke="#002D56" stroke-width="1.19999993" fill="#002D56"></path>
                <path d="M200.884597,176.869575 L191.545159,187.327452 L177.315457,187.327452 L177.315457,173.635745 L177.935698,173.635745 L177.935698,170.523993 L178.609443,170.523993 L167.516012,153.729975 L185.444416,56.4071647 L185.566798,9.21010628 L188.322719,13.11312 L191.23043,9.10214565 L192.086821,13.11312 L192.736727,56.6244044 L208.54471,141.458444 L203.124602,141.458444 L188.953368,61.7542304 L173.04328,152.781824 L205.137874,152.781824 L204.506039,149.228151 L210.174322,150.203806 L211.184378,155.624303 L198.794972,170.523993 L199.644116,170.523993 L199.644116,173.635745 L200.884597,173.635745 L200.884597,176.869575 Z M173.988063,156.593455 L182.148655,168.275376 L195.175208,168.275376 L204.081304,156.593455 L173.988063,156.593455 Z" id="Combined-Shape" stroke="#002D56" stroke-width="1.19999993" fill="#002D56"></path>
            </g>
            <g id="Group-6" transform="translate(0.000000, 47.000000)" fill-rule="nonzero">
                <path d="M20.3860793,18.9112416 C23.7065391,18.9112416 27.953639,19.0656816 32.4323988,19.7606615 C33.2045988,19.9151015 33.5906988,20.3012015 33.5906988,20.9961815 L33.5906988,25.5521613 C33.5906988,26.3243613 33.2045988,26.7104613 32.3551788,26.7104613 L18.1466993,26.7104613 C14.9034595,26.7104613 13.0501795,27.7143213 13.0501795,30.1081412 L13.0501795,31.0347811 C13.0501795,32.8880611 14.0540395,34.355241 17.2972794,35.590761 L27.413099,39.2973208 C34.2084587,41.8455807 35.2895387,45.7838006 35.2895387,50.5714404 L35.2895387,51.5753004 C35.2895387,60.3783801 29.4208189,62.3861 19.3049993,62.3861 C12.5868595,62.3861 6.79535975,61.92278 4.24709984,61.69112 C3.32045988,61.6139 3.08879989,61.2278 3.08879989,60.5328201 L3.08879989,55.7451802 C3.08879989,54.8957603 3.39767988,54.5096603 4.32431984,54.5096603 L19.3049993,54.5096603 C24.4787391,54.5096603 26.100359,53.8919003 26.100359,51.1892004 L26.100359,50.4170004 C26.100359,48.5637205 25.1737191,47.3282005 21.6988192,46.0154606 L11.5057796,42.1544607 C5.4826198,39.9923008 3.78377986,35.359101 3.78377986,30.8031211 L3.78377986,29.2587212 C3.78377986,20.8417415 10.7335796,18.9112416 20.3860793,18.9112416 Z M86.2470169,18.8340216 C98.9883164,18.8340216 103.389856,21.3822815 103.312636,35.976861 L103.158196,60.8417 C103.158196,61.6139 102.849316,62 102.077116,62 L95.0500966,62 C94.2778966,62 93.9690166,61.6139 93.9690166,60.8417 L93.9690166,38.9112208 C93.9690166,27.4826613 92.1929567,26.9421213 85.4748169,26.9421213 C82.772117,26.9421213 79.9921971,27.1737813 77.7528172,27.5598813 C78.5250172,29.8764812 78.9111172,32.9652811 78.9111172,37.2123809 L78.7566772,60.8417 C78.7566772,61.69112 78.4477972,62 77.7528172,62 L70.6485775,62 C69.8763775,62 69.4902775,61.6139 69.4902775,60.8417 L69.4902775,37.3668209 C69.4902775,27.4054413 67.5597776,27.0193413 60.9960778,27.0193413 L54.4323781,27.0193413 L54.4323781,60.8417 C54.4323781,61.6139 54.0462781,62 53.2740781,62 L46.2470584,62 C45.4748584,62 45.1659784,61.6139 45.0887584,60.8417 L45.0887584,21.3822815 C45.0887584,20.4556415 45.4748584,20.3012015 46.2470584,20.1467615 C50.3397182,19.2973416 56.285658,18.9112416 59.9922179,18.9112416 C65.3976177,18.9112416 70.4941375,19.9151015 73.2740574,21.2278415 C77.4439372,19.7606615 82.540457,18.8340216 86.2470169,18.8340216 Z M129.714155,18.9112416 C143.304875,18.9112416 147.783635,23.2355614 147.783635,31.5753211 L147.783635,58.4478801 C147.783635,59.4517401 147.629195,60.2239401 146.239235,60.68726 C142.223795,61.84556 135.428435,62.3861 128.864735,62.3861 C118.053936,62.3861 112.571316,60.68726 112.571316,49.4903605 C112.571316,39.6834208 117.745056,37.2123809 127.243115,37.2123809 L138.440015,37.2123809 L138.440015,33.1969411 C138.440015,28.8726212 135.891755,27.0193413 129.714155,27.0193413 L117.050076,27.0193413 C116.123436,27.0193413 115.891776,26.7876813 115.891776,25.8610413 L115.891776,21.1506215 C115.891776,20.2239815 116.200656,20.0695415 116.972856,19.9151015 C121.606056,19.0656816 125.775936,18.9112416 129.714155,18.9112416 Z M138.440015,43.9305207 L127.783655,43.9305207 C123.690996,43.9305207 121.837716,45.2432606 121.837716,49.1042605 C121.837716,53.5058003 123.922656,54.5868803 129.636935,54.5868803 C131.567435,54.5868803 135.814535,54.4324403 138.440015,53.7374603 L138.440015,43.9305207 Z M172.331874,18.9112416 C174.339594,18.9112416 179.667774,19.1429016 181.752714,19.7606615 C182.524914,19.9923215 182.988234,20.3012015 182.988234,21.1506215 L182.988234,25.8610413 C182.988234,26.7104613 182.524914,27.0965613 181.675494,27.0193413 L174.648474,27.0193413 C170.015274,27.0193413 168.625314,27.7915413 168.625314,31.1892211 L168.625314,60.8417 C168.625314,61.6139 168.239214,62 167.467014,62 L160.439994,62 C159.667794,62 159.281694,61.6139 159.281694,60.8417 L159.281694,28.7954012 C159.281694,19.6062216 166.617594,18.9112416 172.331874,18.9112416 Z M194.563513,9.25874193 L201.590533,7.482682 C202.439953,7.25102201 202.903273,7.71434199 202.903273,8.56376196 L202.903273,19.3745616 L210.548053,19.3745616 C211.320253,19.3745616 211.783573,19.7606615 211.783573,20.5328615 L211.783573,25.3977213 C211.783573,26.2471413 211.320253,26.6332413 210.548053,26.6332413 L202.903273,26.6332413 L202.903273,50.1853404 C202.903273,53.5830203 203.907133,54.2780003 207.690913,54.2780003 L211.088593,54.2780003 C212.015233,54.2780003 212.401333,54.5868803 212.401333,55.3590802 L212.401333,60.4556001 C212.401333,61.30502 212.015233,61.69112 211.243033,61.84556 C209.080873,62.23166 206.918713,62.3861 205.760413,62.3861 C199.737253,62.3861 193.482433,62.23166 193.482433,52.9652603 L193.482433,26.6332413 L189.080893,26.6332413 C188.308693,26.6332413 187.845373,26.2471413 187.845373,25.3977213 L187.845373,20.5328615 C187.845373,19.7606615 188.308693,19.3745616 189.080893,19.3745616 L193.482433,19.3745616 L193.482433,10.4942619 C193.482433,9.72206192 193.868533,9.41318193 194.563513,9.25874193 Z" id="smart" fill="#002D56"></path>
                <path d="M259.626283,2.54060218 C273.680323,2.54060218 280.321242,6.32438204 280.321242,18.9112416 C280.321242,26.7104613 278.236302,31.0347811 272.676463,32.1930811 L272.676463,32.4247411 C279.780702,33.428601 281.788422,38.8340008 281.788422,46.3243406 C281.788422,59.1428601 274.993062,62.3861 261.711223,62.3861 C256.460263,62.3861 245.108924,62.15444 238.931324,61.69112 C238.004684,61.6139 237.773024,61.45946 237.773024,60.6100401 L237.773024,4.23944212 C237.773024,3.39002215 238.004684,3.23558216 238.931324,3.15836216 C245.108924,2.69504218 254.298103,2.54060218 259.626283,2.54060218 Z M258.699643,11.1892419 L247.734403,11.1892419 L247.734403,28.7181812 L256.460263,28.7181812 C266.653303,28.7181812 270.359863,28.1004212 270.359863,20.1467615 C270.359863,12.8108618 266.730523,11.1892419 258.699643,11.1892419 Z M261.556783,36.2085209 L247.734403,36.2085209 L247.734403,53.7374603 L261.402343,53.7374603 C268.583803,53.7374603 271.827043,52.1930604 271.827043,45.3977006 C271.827043,37.8301409 268.043263,36.2085209 261.556783,36.2085209 Z M312.900361,2.54060218 C330.043201,2.54060218 335.8347,6.09272205 335.8347,21.7683815 C335.8347,33.814701 332.59146,38.2162409 323.556721,39.6062008 L336.6069,60.4556001 C337.22466,61.30502 336.83856,62 335.68026,62 L328.498801,62 C326.722741,62 326.182201,61.45946 325.410001,60.3011601 L312.668701,40.2239608 L303.247862,40.3011808 L303.247862,60.8417 C303.247862,61.76834 303.016202,62 302.089562,62 L294.444782,62 C293.518142,62 293.286482,61.76834 293.286482,60.8417 L293.286482,4.23944212 C293.286482,3.39002215 293.518142,3.23558216 294.444782,3.15836216 C300.622382,2.69504218 307.572181,2.54060218 312.900361,2.54060218 Z M311.973721,11.1892419 L303.247862,11.1892419 L303.247862,32.3475211 L311.973721,32.3475211 C322.938961,32.3475211 325.796101,31.4208811 325.796101,22.0000415 C325.796101,12.8108618 322.938961,11.1892419 311.973721,11.1892419 Z M348.6455,2.92670217 L356.21306,2.92670217 C356.98526,2.92670217 357.37136,3.31280215 357.37136,4.08500212 L357.37136,60.76448 C357.37136,61.6139 356.98526,62 356.21306,62 L348.6455,62 C347.8733,62 347.4872,61.6139 347.4872,60.76448 L347.4872,4.08500212 C347.4872,3.31280215 347.8733,2.92670217 348.6455,2.92670217 Z M394.197578,2.54060218 C412.035398,2.54060218 418.753537,11.3436819 418.753537,32.5019611 C418.753537,53.5830203 412.035398,62.3861 394.197578,62.3861 C387.093339,62.3861 378.599139,62.15444 372.421539,61.69112 C371.494899,61.6139 371.263239,61.53668 371.263239,60.68726 L371.263239,4.23944212 C371.263239,3.39002215 371.494899,3.23558216 372.421539,3.15836216 C378.599139,2.69504218 387.093339,2.54060218 394.197578,2.54060218 Z M393.425378,11.1892419 L381.224619,11.1892419 L381.224619,53.7374603 L394.197578,53.7374603 C404.853938,53.7374603 408.714938,47.4054205 408.714938,32.5019611 C408.714938,17.5985016 404.622278,11.1892419 393.425378,11.1892419 Z M452.722616,2.54060218 C457.587476,2.54060218 464.537276,2.77226217 468.398276,3.46724215 C469.324916,3.62168214 469.788236,4.08500212 469.788236,5.08886209 L469.788236,9.95372191 C469.788236,10.8031419 469.402136,11.1892419 468.629936,11.1892419 L452.722616,11.1892419 C440.676297,11.1892419 438.591357,16.0541017 438.591357,32.5019611 C438.591357,48.9498205 440.676297,53.7374603 452.722616,53.7374603 L463.456196,53.7374603 L463.456196,34.123581 C463.456196,33.3513811 463.842296,32.8880611 464.614496,32.8880611 L471.641516,32.8880611 C472.413716,32.8880611 472.799816,33.3513811 472.799816,34.123581 L472.799816,56.5946002 C472.799816,57.5984602 472.722596,57.9073402 472.490936,58.2934401 C470.792096,61.69112 460.753496,62.3861 452.722616,62.3861 C433.494837,62.3861 428.552757,55.5907402 428.552757,32.5019611 C428.552757,9.33596193 433.494837,2.54060218 452.722616,2.54060218 Z M485.687835,2.92670217 L523.062314,2.92670217 C523.834514,2.92670217 524.297834,3.31280215 524.297834,4.08500212 L524.297834,10.4170419 C524.297834,11.1892419 523.834514,11.5753418 523.062314,11.5753418 L494.490915,11.5753418 L494.490915,28.8726212 L520.591274,28.8726212 C521.363474,28.8726212 521.749574,29.2587212 521.749574,30.0309212 L521.749574,36.1313009 C521.749574,36.9035009 521.363474,37.2896009 520.591274,37.2896009 L494.490915,37.2896009 L494.490915,53.3513603 L523.062314,53.3513603 C523.834514,53.3513603 524.297834,53.7374603 524.297834,54.5096603 L524.297834,60.8417 C524.297834,61.6139 523.834514,62 523.062314,62 L485.687835,62 C484.915635,62 484.529535,61.6139 484.529535,60.8417 L484.529535,4.08500212 C484.529535,3.31280215 484.915635,2.92670217 485.687835,2.92670217 Z" id="BRIDGE" fill="#002D56"></path>
                <path d="M45.5597983,79.9732509 L53.204578,79.9732509 C53.976778,79.9732509 54.362878,80.3593509 54.362878,81.1315508 L54.362878,137.811029 C54.362878,138.660449 53.976778,139.046549 53.204578,139.046549 L45.5597983,139.046549 C44.7875984,139.046549 44.4014984,138.660449 44.4014984,137.811029 L44.4014984,113.64117 L15.9073194,113.64117 L15.9073194,137.811029 C15.9073194,138.660449 15.5212194,139.046549 14.7490195,139.046549 L7.10423974,139.046549 C6.33203977,139.046549 5.94593978,138.660449 5.94593978,137.811029 L5.94593978,81.1315508 C5.94593978,80.3593509 6.33203977,79.9732509 7.10423974,79.9732509 L14.7490195,79.9732509 C15.5212194,79.9732509 15.9073194,80.3593509 15.9073194,81.1315508 L15.9073194,104.91531 L44.4014984,104.91531 L44.4014984,81.1315508 C44.4014984,80.3593509 44.7875984,79.9732509 45.5597983,79.9732509 Z M81.9999171,95.9577903 C95.5906366,95.9577903 100.069396,100.28211 100.069396,108.62187 L100.069396,135.494429 C100.069396,136.498289 99.9149564,137.270489 98.5249965,137.733809 C94.5095566,138.892109 87.7141969,139.432649 81.1504971,139.432649 C70.3396975,139.432649 64.8570777,137.733809 64.8570777,126.536909 C64.8570777,116.72997 70.0308175,114.25893 79.5288772,114.25893 L90.7257767,114.25893 L90.7257767,110.24349 C90.7257767,105.91917 88.1775168,104.06589 81.9999171,104.06589 L69.3358375,104.06589 C68.4091976,104.06589 68.1775376,103.83423 68.1775376,102.90759 L68.1775376,98.1971702 C68.1775376,97.2705302 68.4864176,97.1160903 69.2586175,96.9616503 C73.8918174,96.1122303 78.0616972,95.9577903 81.9999171,95.9577903 Z M90.7257767,120.977069 L80.0694171,120.977069 C75.9767573,120.977069 74.1234774,122.289809 74.1234774,126.150809 C74.1234774,130.552349 76.2084173,131.633429 81.9226971,131.633429 C83.853197,131.633429 88.1002968,131.478989 90.7257767,130.784009 L90.7257767,120.977069 Z M152.802935,95.8805703 C165.544234,95.8805703 169.945774,98.4288302 169.868554,113.02341 L169.714114,137.888249 C169.714114,138.660449 169.405234,139.046549 168.633034,139.046549 L161.606014,139.046549 C160.833814,139.046549 160.524934,138.660449 160.524934,137.888249 L160.524934,115.95777 C160.524934,104.52921 158.748874,103.98867 152.030735,103.98867 C149.328035,103.98867 146.548115,104.22033 144.308735,104.60643 C145.080935,106.92303 145.467035,110.01183 145.467035,114.25893 L145.312595,137.888249 C145.312595,138.737669 145.003715,139.046549 144.308735,139.046549 L137.204495,139.046549 C136.432295,139.046549 136.046195,138.660449 136.046195,137.888249 L136.046195,114.41337 C136.046195,104.45199 134.115695,104.06589 127.551995,104.06589 L120.988296,104.06589 L120.988296,137.888249 C120.988296,138.660449 120.602196,139.046549 119.829996,139.046549 L112.802976,139.046549 C112.030776,139.046549 111.721896,138.660449 111.644676,137.888249 L111.644676,98.4288302 C111.644676,97.5021902 112.030776,97.3477502 112.802976,97.1933102 C116.895636,96.3438903 122.841576,95.9577903 126.548136,95.9577903 C131.953535,95.9577903 137.050055,96.9616503 139.829975,98.2743902 C143.999855,96.8072103 149.096375,95.8805703 152.802935,95.8805703 Z M182.679354,80.0504709 L189.783593,80.0504709 C190.555793,80.0504709 190.941893,80.3593509 190.941893,81.2087708 L190.941893,96.4211103 C193.490153,96.1122303 196.810613,95.9577903 200.826053,95.9577903 C215.111752,95.9577903 218.432212,100.59099 218.432212,117.733829 C218.432212,134.953889 215.111752,139.432649 199.513313,139.432649 C193.953473,139.432649 189.551933,139.123769 182.988234,138.042689 C182.061594,137.888249 181.521054,137.502149 181.521054,136.421069 L181.521054,81.2087708 C181.521054,80.3593509 181.907154,80.0504709 182.679354,80.0504709 Z M199.358873,104.06589 L190.941893,104.06589 L190.941893,130.706789 C193.644593,131.092889 197.119493,131.324549 199.590533,131.324549 C208.239173,131.324549 209.088593,128.235749 209.088593,117.733829 C209.088593,106.61415 208.007513,104.06589 199.358873,104.06589 Z M257.188931,96.3438903 L264.293171,96.3438903 C265.065371,96.3438903 265.451471,96.7299903 265.451471,97.5021902 L265.451471,136.884389 C265.451471,137.888249 265.065371,137.965469 264.293171,138.119909 C258.578891,139.278209 251.706311,139.432649 247.073111,139.432649 C232.787412,139.432649 228.771972,137.193269 228.771972,121.054289 L228.771972,97.5021902 C228.771972,96.7299903 229.312512,96.3438903 230.084712,96.3438903 L237.034512,96.3438903 C237.806712,96.3438903 238.115592,96.7299903 238.115592,97.5021902 L238.115592,119.355449 C238.115592,130.784009 239.891651,131.324549 247.150331,131.324549 L256.030631,131.324549 L256.030631,97.5021902 C256.030631,96.7299903 256.416731,96.3438903 257.188931,96.3438903 Z M290.30859,95.9577903 C292.31631,95.9577903 297.644489,96.1894503 299.729429,96.8072103 C300.501629,97.0388703 300.964949,97.3477502 300.964949,98.1971702 L300.964949,102.90759 C300.964949,103.75701 300.501629,104.14311 299.652209,104.06589 L292.62519,104.06589 C287.99199,104.06589 286.60203,104.83809 286.60203,108.23577 L286.60203,137.888249 C286.60203,138.660449 286.21593,139.046549 285.44373,139.046549 L278.41671,139.046549 C277.64451,139.046549 277.25841,138.660449 277.25841,137.888249 L277.25841,105.84195 C277.25841,96.6527703 284.59431,95.9577903 290.30859,95.9577903 Z M326.748708,95.9577903 C333.466848,95.9577903 339.258348,96.5755503 343.196568,97.3477502 C344.123208,97.4249702 344.663748,97.9655102 344.663748,98.8921502 L344.663748,136.575509 C344.586528,150.011788 341.961048,154.876648 326.285388,154.876648 C322.424389,154.876648 317.791189,154.644988 313.621309,154.027228 C312.926329,153.872788 312.540229,153.486688 312.540229,152.791708 L312.540229,148.235728 C312.540229,147.386308 312.926329,147.077428 313.698529,147.077428 L325.744848,147.077428 C333.466848,147.077428 335.320128,145.224148 335.320128,139.123769 L335.320128,138.737669 C331.999668,139.278209 329.065308,139.432649 325.435969,139.432649 C311.150269,139.432649 307.675369,134.799449 307.675369,117.34773 C307.675369,100.35933 311.227489,95.9577903 326.748708,95.9577903 Z M335.320128,104.06589 L326.439828,104.06589 C317.945629,104.06589 317.096209,107.07747 317.096209,117.656609 C317.096209,128.699069 318.254509,131.247329 326.903148,131.247329 C329.451408,131.247329 332.617428,131.170109 335.320128,130.784009 L335.320128,104.06589 Z" id="Hamburg" fill="#DE2022"></path>
            </g>
        </g>
    </g>
</svg>

<?xml version="1.0" encoding="UTF-8" standalone="no"?>
<svg
   xmlns:dc="http://purl.org/dc/elements/1.1/"
   xmlns:cc="http://creativecommons.org/ns#"
   xmlns:rdf="http://www.w3.org/1999/02/22-rdf-syntax-ns#"
   xmlns:svg="http://www.w3.org/2000/svg"
   xmlns="http://www.w3.org/2000/svg"
   xmlns:sodipodi="http://sodipodi.sourceforge.net/DTD/sodipodi-0.dtd"
   xmlns:inkscape="http://www.inkscape.org/namespaces/inkscape"
   width="233"
   height="233"
   viewBox="0 0 233 233"
   version="1.1"
   id="svg2"
   inkscape:version="0.48.5 r10040"
   sodipodi:docname="smartBRIDGE_HH_Logo_positiv_Quadrat.svg"
   inkscape:export-filename="C:\Users\marc.wenner\Desktop\smartBRIDGE_HH_Logo_positiv_Quadrat.png"
   inkscape:export-xdpi="600"
   inkscape:export-ydpi="600">
  <metadata
     id="metadata23">
    <rdf:RDF>
      <cc:Work
         rdf:about="">
        <dc:format>image/svg+xml</dc:format>
        <dc:type
           rdf:resource="http://purl.org/dc/dcmitype/StillImage" />
        <dc:title>smartBRIDGE_HH_Logo_vektorisiert@2x</dc:title>
      </cc:Work>
    </rdf:RDF>
  </metadata>
  <defs
     id="defs21" />
  <sodipodi:namedview
     pagecolor="#ffffff"
     bordercolor="#666666"
     borderopacity="1"
     objecttolerance="10"
     gridtolerance="10"
     guidetolerance="10"
     inkscape:pageopacity="1"
     inkscape:pageshadow="2"
     inkscape:window-width="1920"
     inkscape:window-height="1001"
     id="namedview19"
     showgrid="false"
     inkscape:zoom="2.5493911"
     inkscape:cx="153.96196"
     inkscape:cy="117.91473"
     inkscape:window-x="-9"
     inkscape:window-y="-9"
     inkscape:window-maximized="1"
     inkscape:current-layer="svg2" />
  <!-- Generator: Sketch 53 (72520) - https://sketchapp.com -->
  <title
     id="title4">smartBRIDGE_HH_Logo_vektorisiert@2x</title>
  <desc
     id="desc6">Created with Sketch.</desc>
  <g
     style="fill:none;stroke:none"
     transform="matrix(1.195499,0,0,1.195499,-591.32848,-3.8219277)"
     id="smartBRIDGE_HH_Logo_pos">
    <g
       transform="translate(429,0)"
       id="Brigde">
      <path
         style="fill:#df2022;stroke:#df2022;stroke-width:2"
         inkscape:connector-curvature="0"
         id="Path-33"
         d="m 231.63592,194.09799 c 12.52461,-7.85071 26.50059,-33.45855 22.89438,-40.15928 -3.60621,-6.70073 -45.24912,-12.57662 -71.65572,-12.57662 -26.40659,0 -42.87348,11.7521 -71.8758,27.12708 -5.96184,4.11215 -16.939343,6.80344 -30.487764,8.67379 l -11.13775,-8.82522 c 16.550298,-2.54544 26.79434,-6.11139 35.489664,-11.51813 24.64614,-15.32492 26.21965,-16.71993 45.66674,-16.71993 19.44709,0 60.6333,8.71119 66.70079,12.42538 6.0675,3.71419 -8.22461,19.56629 -19.13437,28.49793 -7.27318,5.95442 -14.86305,10.31276 -22.76964,13.075 31.90468,0 50.6745,0 56.30947,0 z"
         sodipodi:nodetypes="csscccsssscc" />
      <path
         style="fill:#002d56;stroke:#002d56;stroke-width:1.19999993"
         inkscape:connector-curvature="0"
         id="Combined-Shape"
         d="m 142.89382,138.99766 -4.04692,0.69681 -9.83342,-55.477128 -13.23535,75.957708 26.69899,0 -1.19694,-6.75278 3.92078,-2.00348 2.0317,10.93823 -10.16202,12.7764 0.76216,0 0,1.89672 0.80954,0 0,9.4836 -19.42901,0 0,-9.4836 0.80955,0 0,-1.89672 0.48367,0 -9.86616,-14.16718 15.1842,-81.210741 c 0.0723,-15.977504 0.16222,-27.948609 0.26985,-35.913316 0.10763,-7.964707 0.28753,-9.305923 0.5397,-4.02365 l 2.33059,3.539415 2.65542,-3.810375 0.26985,40.207926 11.00382,59.242161 z m -26.32974,24.358 6.78867,9.74794 10.83658,0 7.40885,-9.74794 -25.0341,0 z" />
      <path
         style="fill:#002d56;stroke:#002d56;stroke-width:1.19999993"
         inkscape:connector-curvature="0"
         id="path13"
         d="m 200.8846,176.86957 -9.33944,10.45788 -14.2297,0 0,-13.69171 0.62024,0 0,-3.11175 0.67374,0 -11.09343,-16.79402 17.92841,-97.322805 0.12238,-47.1970587 2.75592,3.9030137 2.90771,-4.0109743 0.85639,4.0109743 0.64991,43.511284 15.80798,84.834036 -5.42011,0 -14.17123,-79.70421 -15.91009,91.02759 32.09459,0 -0.63183,-3.55367 5.66828,0.97566 1.01006,5.42049 -12.38941,14.89969 0.84915,0 0,3.11175 1.24048,0 0,3.23383 z m -26.89654,-20.27612 8.16059,11.68193 13.02656,0 8.90609,-11.68193 -30.09324,0 z" />
    </g>
    <g
       transform="translate(0,47)"
       id="Group-6" />
  </g>
</svg>
